src/pos-icons/briefcase-account.svg

<?xml version="1.0" encoding="UTF-8"?><!DOCTYPE svg PUBLIC "-//W3C//DTD SVG 1.1//EN" "http://www.w3.org/Graphics/SVG/1.1/DTD/svg11.dtd"><svg xmlns="http://www.w3.org/2000/svg" xmlns:xlink="http://www.w3.org/1999/xlink" version="1.1" id="mdi-briefcase-account" width="24" height="24" viewBox="0 0 24 24"><path d="M20,6H16V4A2,2 0 0,0 14,2H10C8.89,2 8,2.89 8,4V6H4C2.89,6 2,6.89 2,8V19A2,2 0 0,0 4,21H20A2,2 0 0,0 22,19V8A2,2 0 0,0 20,6M10,4H14V6H10V4M12,9A2.5,2.5 0 0,1 14.5,11.5A2.5,2.5 0 0,1 12,14A2.5,2.5 0 0,1 9.5,11.5A2.5,2.5 0 0,1 12,9M17,19H7V17.75C7,16.37 9.24,15.25 12,15.25C14.76,15.25 17,16.37 17,17.75V19Z" /></svg>

<svg height="24" viewBox="0 0 24 24" width="24" xmlns="http://www.w3.org/2000/svg"><path d="m20 6h-4v-2a2 2 0 0 0 -2-2h-4c-1.11 0-2 .89-2 2v2h-4c-1.11 0-2 .89-2 2v11a2 2 0 0 0 2 2h16a2 2 0 0 0 2-2v-11a2 2 0 0 0 -2-2m-10-2h4v2h-4zm2 5a2.5 2.5 0 0 1 2.5 2.5 2.5 2.5 0 0 1 -2.5 2.5 2.5 2.5 0 0 1 -2.5-2.5 2.5 2.5 0 0 1 2.5-2.5m5 10h-10v-1.25c0-1.38 2.24-2.5 5-2.5s5 1.12 5 2.5z"/></svg>
